arkscan/icons/bitexen.svg

<svg viewBox="0 0 19 14" fill="none" xmlns="http://www.w3.org/2000/svg">
  <path
    d="M1.84909 14.0005C1.84909 14.0005 9.90188 5.93348 10.9547 4.89487C12.0076 3.85626 13.9425 3.58593 14.9384 4.61032C15.9344 5.6347 16.1762 7.38469 15.3653 8.30948C14.5543 9.23427 14.2271 9.60418 13.9425 9.87451C13.658 10.1448 13.1315 10.6143 12.4059 10.0026C12.1498 9.78914 11.9791 9.63264 11.9791 9.63264L9.67424 11.2973C9.67424 11.2973 10.9263 12.5351 11.5096 13.1753C12.0929 13.8155 13.3165 14.2139 14.2271 13.4314C15.1376 12.6489 15.7352 12.0513 17.0726 10.5859C18.4099 9.12045 20.0177 5.29324 17.0726 2.76074C14.1275 0.228235 10.7982 1.05343 8.96286 2.90301C7.12751 4.75259 0.824711 11.0269 0.568615 11.2973C0.31252 11.5676 0.127562 12.3074 0.568615 12.72C1.00967 13.1326 1.84909 14.0005 1.84909 14.0005Z"
    fill="#53B7EF" />
  <path
    d="M0 1.48001C0 1.48001 0.725604 0.740179 1.1382 0.341808C1.5508 -0.0565631 2.24795 -0.170383 2.70323 0.341808C3.15851 0.853999 12.2357 9.87426 12.2357 9.87426L10.3861 12.0084L0 1.48001Z"
    fill="url(#paint0_linear_3072_38857)" />
  <defs>
    <linearGradient id="paint0_linear_3072_38857" x1="5.5" y1="4.50024" x2="10" y2="9.50024"
      gradientUnits="userSpaceOnUse">
      <stop stop-color="#4496F7" />
      <stop offset="1" stop-color="#53B7EF" />
    </linearGradient>
  </defs>
</svg>

<svg viewBox="0 0 19 14" fill="none" xmlns="http://www.w3.org/2000/svg"><path d="M1.85 14s8.052-8.067 9.105-9.105c1.053-1.039 2.988-1.31 3.983-.285.996 1.025 1.238 2.775.427 3.7-.81.924-1.138 1.294-1.422 1.565-.285.27-.811.74-1.537.128-.256-.214-.427-.37-.427-.37l-2.305 1.664s1.252 1.238 1.836 1.878c.583.64 1.806 1.039 2.717.256.91-.782 1.508-1.38 2.846-2.845 1.337-1.466 2.945-5.293 0-7.825-2.946-2.533-6.275-1.708-8.11.142C7.128 4.753.825 11.027.569 11.297c-.256.27-.441 1.01 0 1.423.44.413 1.28 1.28 1.28 1.28Z" fill="#53B7EF"/><path d="M0 1.48S.726.74 1.138.342c.413-.399 1.11-.512 1.565 0 .456.512 9.533 9.532 9.533 9.532l-1.85 2.134L0 1.48Z" fill="url(#a)"/><defs><linearGradient id="a" x1="5.5" y1="4.5" x2="10" y2="9.5" gradientUnits="userSpaceOnUse"><stop stop-color="#4496F7"/><stop offset="1" stop-color="#53B7EF"/></linearGradient></defs></svg>
